images/btc.svg

<svg width="26" height="26" viewBox="0 0 26 26" fill="none" xmlns="http://www.w3.org/2000/svg">
<path d="M24.7701 15.9353C23.1493 22.4353 16.5647 26.3908 10.0632 24.7702C3.56469 23.1497 -0.391598 16.5659 1.22952 10.0662C2.8495 3.56544 9.43372 -0.390764 15.9334 1.22979C22.4345 2.85034 26.3904 9.43491 24.7697 15.9353H24.7701Z" fill="#FF961C"/>
<path d="M18.1709 11.1227C18.405 9.57469 17.2119 8.7425 15.5804 8.18734L16.1097 6.09031L14.8172 5.7722L14.302 7.81396C13.9627 7.73034 13.6138 7.65145 13.2671 7.57328L13.786 5.51807L12.4947 5.19995L11.9651 7.29625C11.6839 7.23299 11.4079 7.17045 11.14 7.10465L11.1415 7.09811L9.35954 6.65856L9.01582 8.02192C9.01582 8.02192 9.97449 8.23896 9.95425 8.25241C10.4776 8.38148 10.5725 8.72359 10.5563 8.99481L9.95352 11.3838C9.98958 11.3929 10.0363 11.4059 10.0878 11.4263L9.95168 11.3929L9.10635 14.7394C9.04231 14.8965 8.88002 15.1321 8.51421 15.0427C8.52709 15.0612 7.57504 14.8111 7.57504 14.8111L6.93359 16.2726L8.61542 16.6867C8.92823 16.7641 9.23478 16.8452 9.53619 16.9215L9.00146 19.0429L10.2921 19.361L10.822 17.2626C11.1742 17.3571 11.5165 17.4443 11.8514 17.5265L11.3236 19.6152L12.6157 19.9333L13.1505 17.8163C15.3538 18.2282 17.0109 18.062 17.7076 16.0937C18.2695 14.5086 17.68 13.5942 16.5207 12.9976C17.3649 12.8046 18.0009 12.256 18.1705 11.1227H18.1709ZM15.2183 15.2124C14.8187 16.7976 12.1174 15.941 11.2412 15.7258L11.9507 12.9158C12.8266 13.1318 15.6349 13.5593 15.2187 15.2124H15.2183ZM15.6176 11.0998C15.2533 12.5417 13.0047 11.8091 12.2749 11.6295L12.9182 9.08097C13.648 9.26057 15.9974 9.59577 15.6176 11.0998Z" fill="white"/>
</svg>

<svg width="26" height="26" fill="none" xmlns="http://www.w3.org/2000/svg"><path d="M24.77 15.935c-1.62 6.5-8.205 10.456-14.707 8.835C3.565 23.15-.392 16.566 1.23 10.066 2.85 3.566 9.434-.39 15.933 1.23c6.502 1.62 10.457 8.205 8.837 14.705z" fill="#FF961C"/><path d="M18.17 11.123c.235-1.548-.958-2.38-2.59-2.936l.53-2.097-1.293-.318-.515 2.042c-.34-.084-.688-.163-1.035-.24l.519-2.056-1.291-.318-.53 2.096a43.619 43.619 0 01-.825-.191l.002-.007-1.782-.44-.344 1.364s.958.217.938.23c.524.13.618.472.602.743l-.602 2.389c.036.009.082.022.134.042l-.136-.033-.846 3.346c-.064.157-.226.393-.592.304.013.018-.939-.232-.939-.232l-.641 1.462 1.681.414c.313.077.62.158.921.235l-.535 2.12 1.291.319.53-2.098c.352.094.695.181 1.03.263l-.528 2.09 1.292.317.534-2.117c2.204.412 3.86.246 4.558-1.722.562-1.585-.028-2.5-1.187-3.096.844-.193 1.48-.742 1.65-1.875zm-2.952 4.09c-.4 1.585-3.1.728-3.977.513l.71-2.81c.876.216 3.684.643 3.268 2.296zm.4-4.113c-.365 1.442-2.613.71-3.343.53l.643-2.549c.73.18 3.08.515 2.7 2.019z" fill="#fff"/></svg>
